packages/icons/svg/Fill/swap.svg

<svg width="24" height="24" viewBox="0 0 24 24" fill="none" xmlns="http://www.w3.org/2000/svg">
<g id="Icon/Fill/swap">
<path id="Mask" fill-rule="evenodd" clip-rule="evenodd" d="M17 8.00038H4.00002C3.44802 8.00038 3.00002 7.55338 3.00002 7.00038C3.00002 6.44738 3.44802 6.00038 4.00002 6.00038H17.082L15.524 4.79038C15.088 4.45138 15.009 3.82238 15.348 3.38738C15.687 2.95038 16.316 2.87138 16.751 3.21038L20.613 6.21038C20.86 6.40138 21.002 6.69638 21 7.00938C20.998 7.32038 20.85 7.61338 20.6 7.80038L16.6 10.8004C16.42 10.9354 16.209 11.0004 16.001 11.0004C15.697 11.0004 15.396 10.8624 15.2 10.6004C14.869 10.1584 14.958 9.53138 15.4 9.20038L17 8.00038ZM7.00002 15.0004H20C20.552 15.0004 21 15.4474 21 16.0004C21 16.5534 20.552 17.0004 20 17.0004H6.91802L8.47602 18.2104C8.91202 18.5494 8.99102 19.1784 8.65202 19.6134C8.45502 19.8674 8.16002 20.0004 7.86202 20.0004C7.64702 20.0004 7.43102 19.9324 7.24902 19.7904L3.38702 16.7904C3.14002 16.5994 2.99802 16.3044 3.00002 15.9914C3.00202 15.6804 3.15002 15.3874 3.40002 15.2004L7.40002 12.2004C7.84302 11.8694 8.46902 11.9584 8.80002 12.4004C9.13102 12.8424 9.04202 13.4694 8.60002 13.8004L7.00002 15.0004Z" fill="#000000"/>
</g>
</svg>

<svg fill="none" height="24" viewBox="0 0 24 24" width="24" xmlns="http://www.w3.org/2000/svg"><path clip-rule="evenodd" d="m17 8.00038h-12.99998c-.552 0-1-.447-1-1s.448-1 1-1h13.08198l-1.558-1.21c-.436-.339-.515-.968-.176-1.403.339-.437.968-.516 1.403-.177l3.862 3c.247.191.389.486.387.799-.002.311-.15.604-.4.791l-4 3.00002c-.18.135-.391.2-.599.2-.304 0-.605-.138-.801-.4-.331-.442-.242-1.06902.2-1.40002zm-9.99998 7.00002h12.99998c.552 0 1 .447 1 1s-.448 1-1 1h-13.08198l1.558 1.21c.436.339.515.968.176 1.403-.197.254-.492.387-.79.387-.215 0-.431-.068-.613-.21l-3.862-3c-.247-.191-.389-.486-.387-.799.002-.311.15-.604.4-.791l4-3c.443-.331 1.069-.242 1.4.2s.242 1.069-.2 1.4z" fill="#6b7280" fill-rule="evenodd"/></svg>
